/* XPM */
static const char *appicon_xpm[] = {
"32 32 5 1",
"  c None",
". c #1E7837",
"+ c #3ABE5C",
"# c #9696A0",
"@ c #5A5A64",
"                                ",
"                                ",
"                                ",
"                                ",
"                                ",
"   @@@@@@@@@@@@@@@@             ",
"   @##############@             ",
"   @##############@             ",
"   @##############@             ",
"   @##############@             ",
"   @########.................   ",
"   @########.+++++++++++++++.   ",
"   @########.+++++++++++++++.   ",
"   @########.+++++++++++++++.   ",
"   @########.+++++++++++++++.   ",
"   @########.+++++++++++++++.   ",
"   @@@@@@@@@.+++++++++++++++.   ",
"         @@@.+++++++++++++++.   ",
"         @@@.+++++++++++++++.   ",
"         @@@.+++++++++++++++.   ",
"       @@@@@.+++++++++++++++.   ",
"            .+++++++++++++++.   ",
"            .+++++++++++++++.   ",
"            .................   ",
"                   ...          ",
"                   ...          ",
"                   ...          ",
"                 .......        ",
"                                ",
"                                ",
"                                ",
"                                "
};
